X: 4
T: Cahir's Kitchen
R: reel
M: 4/4
L: 1/8
K: Emin
|:B|E2GB E2GB|A2FA DEFD|E2GB E2GA|B3A BAGF|
E2GB E2GB|A2FA dAFD|(3EFG FA GBAc|BAFG E4||
|:A|BEGB EG B2|A2 FA DEFD|BeBG EFGE|BGcA dBcA|
B3G EG B2|A2FA dAFD|(3EFG FA GBAc|BAFG E3f||
|:eBgf eBfe|dAfe dAgf|eBgf eB B2|BAGF GE E2|
eBgf eBfe|dA A2 FAd2|(3EFG FA GBAc|BAFG E3f||
eBgf eBfe|dAfe dAgf|eBgf e3f|g3a bagf|
eBgf eBfe|dA A2 FAd2|(3EFG FA GBAc|BAFG E4||


Tune 1090	Setting 24796

